X:1
T:Title
%%score { ( 1 3 ) | ( 2 4 ) }
L:1/8
M:4/4
K:Bb
V:1 treble nm="Grand Piano"
V:3 treble 
V:2 bass 
V:4 bass 
V:1
 z4 z2[Q:1/4=100] F2 | B3 A G2 D2 | [F,CF]3 [F,CE] [F,B,D]2[K:treble] [B,DF]2 | z4 z2 G2 | %4
[M:3/4] B2 c2 [Fd]2 |[M:1/4] z2 |[M:4/4] [Fd]3 [Ec] [DB]2 [B,FA]2 | [B,FA]2 [B,EG]2 [DF]4 | %8
 z4 z2 G2 | B2 A2 [DB]4 | [DF]2 [DF][DF] [DFB]2 [CFA]2 | [DFA]2 [B,CG]2 [A,CF]4 | %12
 [B,EG]2 [B,EG][B,EG] [CFA]2 [B,FB]2 | z2 [FB]2 z4 | z4 z2 c2 | B2 [Gc]2 z4 | %16
 [Ge]2 [Ge][Fe] [Fd]2 [Gc]2 |[M:8/4] [FB]2 [EA]2 [DB]4 z8 |[M:4/4] [EB]8 | [DB]8 |] %20
V:2
 z4 z2 F,2 | B,3 A, G,2 D,2 | A,,3 A,, B,,2 B,,2 | E,2 E,2 D,2 z E | %4
[M:3/4] [F,DF]2 [F,A,F]2 [B,,B,]2 |[M:1/4] [F,F]2 |[M:4/4] [B,,B,]3 [B,,B,] [B,,B,]2 D,2 | %7
 E,2 G,2 B,4 | B,,2 E,E, D,2 z E | [F,DF]2 [F,CE]2 [B,,B,]4 | [B,,B,]2 [B,,B,][B,,B,] G,,2 A,,2 | %11
 B,,2 C,2 F,4 | E,2 E,E, E,2 D,2 | C,2 B,,D, [F,A,F]4 | [D,D]2 [D,CD][D,B,D] [D,A,D]2 .[D,G,D]2 | %15
 [G,D]2 .[E,A,]2 [D,A,]4 | [C,C]2 [C,B,][F,A,] [B,,B,]2 [E,C]2 |[M:8/4] [F,D]2 [F,C]2 [B,,B,]4 z8 | %18
[M:4/4] [E,G,]8 | [B,,F,]8 |] %20
V:3
 x8 | x8 | x6[K:treble] x2 | [B,EG]2 [CFA]2 [B,FB]2 [Fd]c |[M:3/4] x6 |[M:1/4] x2 |[M:4/4] x8 | %7
 x8 | [B,DF]2 [B,EG][CFA] [B,FB]2 [Fd]c | x8 | x8 | x8 | x8 | [EFA]2 DB, c4 | d2 dd c2 z ^F, | %15
 z B, z G, [^Fd]4 | x8 |[M:8/4] x16 |[M:4/4] x8 | x8 |] %20
V:4
 x8 | x8 | x8 | z4 z2 E,2 |[M:3/4] x6 |[M:1/4] x2 |[M:4/4] x8 | x8 | z4 z2 E,2 | x8 | x8 | x8 | %12
 x8 | x8 | x8 | x8 | x8 |[M:8/4] x16 |[M:4/4] x8 | x8 |] %20

